components/Common/Svg/svgs/shoppingBag.svg

<svg width="40" height="40" viewBox="0 0 40 40" fill="none" xmlns="http://www.w3.org/2000/svg">
<path fill-rule="evenodd" clip-rule="evenodd" d="M6 8.75C6 8.61193 6.11193 8.5 6.25 8.5H33.75C33.8881 8.5 34 8.61193 34 8.75V31.25C34 31.3881 33.8881 31.5 33.75 31.5H6.25C6.11193 31.5 6 31.3881 6 31.25V8.75ZM6.25 6.5C5.00736 6.5 4 7.50736 4 8.75V31.25C4 32.4926 5.00736 33.5 6.25 33.5H33.75C34.9926 33.5 36 32.4926 36 31.25V8.75C36 7.50736 34.9926 6.5 33.75 6.5H6.25ZM14.75 13.75C14.75 13.1977 14.3023 12.75 13.75 12.75C13.1977 12.75 12.75 13.1977 12.75 13.75C12.75 15.6728 13.5138 17.5169 14.8735 18.8765C16.2331 20.2362 18.0772 21 20 21C21.9228 21 23.7669 20.2362 25.1265 18.8765C26.4862 17.5169 27.25 15.6728 27.25 13.75C27.25 13.1977 26.8023 12.75 26.25 12.75C25.6977 12.75 25.25 13.1977 25.25 13.75C25.25 15.1424 24.6969 16.4777 23.7123 17.4623C22.7277 18.4469 21.3924 19 20 19C18.6076 19 17.2723 18.4469 16.2877 17.4623C15.3031 16.4777 14.75 15.1424 14.75 13.75Z" fill="#161616"/>
</svg>

<svg width="40" height="40" viewBox="0 0 40 40" fill="none" xmlns="http://www.w3.org/2000/svg"><path fill-rule="evenodd" clip-rule="evenodd" d="M6 8.75a.25.25 0 0 1 .25-.25h27.5a.25.25 0 0 1 .25.25v22.5a.25.25 0 0 1-.25.25H6.25a.25.25 0 0 1-.25-.25V8.75Zm.25-2.25A2.25 2.25 0 0 0 4 8.75v22.5a2.25 2.25 0 0 0 2.25 2.25h27.5A2.25 2.25 0 0 0 36 31.25V8.75a2.25 2.25 0 0 0-2.25-2.25H6.25Zm8.5 7.25a1 1 0 1 0-2 0 7.25 7.25 0 1 0 14.5 0 1 1 0 1 0-2 0 5.25 5.25 0 1 1-10.5 0Z" fill="#161616"/></svg>
